Icons/rename_me_torrent_video_downloader.svg

<svg viewBox="0 0 48 48" xmlns:xlink="http://www.w3.org/1999/xlink">
 <defs>
  <linearGradient id="0">
   <stop stop-opacity="0"/>
   <stop offset="1"/>
  </linearGradient>
  <linearGradient xlink:href="#0" id="1" gradientUnits="userSpaceOnUse" gradientTransform="translate(4e-7,-48)" y1="47" x2="0" y2="1"/>
  <clipPath id="2">
   <g transform="translate(0,-1004.3622)">
    <rect rx="4" y="1005.36" x="1" height="46" width="46" fill="#1890d0"/>
   </g>
  </clipPath>
  <clipPath id="3">
   <g transform="translate(0,-1004.3622)">
    <rect rx="4" y="1005.36" x="1" height="46" width="46" fill="#1890d0"/>
   </g>
  </clipPath>
 </defs>
 <g>
  <g transform="translate(0,-1004.3622)">
   <path d="m 5,1006.3622 c -2.216,0 -4,1.784 -4,4 l 0,37.25 c 0,2.216 1.784,4 4,4 l 38,0 c 2.216,0 4,-1.784 4,-4 l 0,-37.25 c 0,-2.216 -1.784,-4 -4,-4 l -38,0 z m -4,41.5 0,0.5 c 0,2.216 1.784,4 4,4 l 38,0 c 2.216,0 4,-1.784 4,-4 l 0,-0.5 c 0,2.216 -1.784,4 -4,4 l -38,0 c -2.216,0 -4,-1.784 -4,-4 z" opacity="0.02"/>
   <path d="m 1,1047.6122 0,0.25 c 0,2.216 1.784,4 4,4 l 38,0 c 2.216,0 4,-1.784 4,-4 l 0,-0.25 c 0,2.216 -1.784,4 -4,4 l -38,0 c -2.216,0 -4,-1.784 -4,-4 z" opacity="0.05"/>
   <rect width="46" height="46" x="1" y="1005.61" rx="4" opacity="0.1"/>
  </g>
 </g>
 <g>
  <g transform="translate(0,-1004.3622)">
   <rect rx="4" y="1005.36" x="1" height="46" width="46" fill="#5ea1cc"/>
  </g>
 </g>
 <g>
  <rect transform="scale(1,-1)" width="46" height="46" x="1" y="-46.998" rx="4" opacity="0.1" fill="url(#1)"/>
 </g>
 <g>
  <g clip-path="url(#2)">
   <g opacity="0.1">
    <g>
     <path d="M 20 9 L 20 11 L 28 11 L 28 9 Z M 20 13 L 20 15 L 28 15 L 28 13 Z M 20 17 L 20 21 L 28 21 L 28 17 Z M 20 23 L 20 25 L 14 25 L 24 33 L 34 25 L 28 25 L 28 23 Z M 20 23 "/>
     <path d="M 12.886719 34 L 35.113281 34 C 35.601562 34 36 34.394531 36 34.886719 L 36 36.113281 C 36 36.601562 35.601562 37 35.113281 37 L 12.886719 37 C 12.398438 37 12 36.601562 12 36.113281 L 12 34.886719 C 12 34.394531 12.398438 34 12.886719 34 Z M 12.886719 34 "/>
    </g>
   </g>
  </g>
 </g>
 <g>
  <g clip-path="url(#3)">
   <g transform="translate(0,-1)">
    <g>
     <path d="M 20 9 L 20 11 L 28 11 L 28 9 Z M 20 13 L 20 15 L 28 15 L 28 13 Z M 20 17 L 20 21 L 28 21 L 28 17 Z M 20 23 L 20 25 L 14 25 L 24 33 L 34 25 L 28 25 L 28 23 Z M 20 23 " fill="#f9f9f9"/>
     <path d="M 12.886719 34 L 35.113281 34 C 35.601562 34 36 34.394531 36 34.886719 L 36 36.113281 C 36 36.601562 35.601562 37 35.113281 37 L 12.886719 37 C 12.398438 37 12 36.601562 12 36.113281 L 12 34.886719 C 12 34.394531 12.398438 34 12.886719 34 Z M 12.886719 34 " fill="#f9f9f9"/>
    </g>
   </g>
  </g>
 </g>
 <g>
  <g transform="translate(0,-1004.3622)">
   <path d="m 1,1043.3622 0,4 c 0,2.216 1.784,4 4,4 l 38,0 c 2.216,0 4,-1.784 4,-4 l 0,-4 c 0,2.216 -1.784,4 -4,4 l -38,0 c -2.216,0 -4,-1.784 -4,-4 z" opacity="0.1"/>
  </g>
 </g>
</svg>

<svg viewBox="0 0 48 48"><defs><linearGradient id="linearGradient3764" x1="1" x2="47" gradientUnits="userSpaceOnUse" gradientTransform="translate(-48.000001,0.00221467)"><stop stop-color="#4f98c7" stop-opacity="1"/><stop offset="1" stop-color="#5ea1cc" stop-opacity="1"/></linearGradient><clipPath id="clipPath-721172929"><g transform="translate(0,-1004.3622)"><rect rx="4" y="1005.36" x="1" height="46" width="46" fill="#1890d0"/></g></clipPath><clipPath id="clipPath-733858183"><g transform="translate(0,-1004.3622)"><rect rx="4" y="1005.36" x="1" height="46" width="46" fill="#1890d0"/></g></clipPath></defs><g><path d="m 1 43 l 0 0.25 c 0 2.216 1.784 4 4 4 l 38 0 c 2.216 0 4 -1.784 4 -4 l 0 -0.25 c 0 2.216 -1.784 4 -4 4 l -38 0 c -2.216 0 -4 -1.784 -4 -4 z m 0 0.5 l 0 0.5 c 0 2.216 1.784 4 4 4 l 38 0 c 2.216 0 4 -1.784 4 -4 l 0 -0.5 c 0 2.216 -1.784 4 -4 4 l -38 0 c -2.216 0 -4 -1.784 -4 -4 z" opacity="0.02"/><path d="m 1 43.25 l 0 0.25 c 0 2.216 1.784 4 4 4 l 38 0 c 2.216 0 4 -1.784 4 -4 l 0 -0.25 c 0 2.216 -1.784 4 -4 4 l -38 0 c -2.216 0 -4 -1.784 -4 -4 z" opacity="0.05"/><path d="m 1 43 l 0 0.25 c 0 2.216 1.784 4 4 4 l 38 0 c 2.216 0 4 -1.784 4 -4 l 0 -0.25 c 0 2.216 -1.784 4 -4 4 l -38 0 c -2.216 0 -4 -1.784 -4 -4 z" opacity="0.1"/></g><g><rect width="46" height="46" x="-47" y="1" rx="4" transform="matrix(0,-1,1,0,0,0)" fill="url(#linearGradient3764)" fill-opacity="1"/></g><g><g clip-path="url(#clipPath-721172929)"><g opacity="0.1"><!-- color: #5ea1cc --><g><path d="m 20 9 l 0 2 l 8 0 l 0 -2 m -8 4 l 0 2 l 8 0 l 0 -2 m -8 4 l 0 4 l 8 0 l 0 -4 m -8 6 l 0 2 l -6 0 l 10 8 l 10 -8 l -6 0 l 0 -2 m -8 0" fill="#000"/><path d="m 12.887 34 l 22.23 0 c 0.488 0 0.887 0.395 0.887 0.887 l 0 1.227 c 0 0.488 -0.398 0.887 -0.887 0.887 l -22.23 0 c -0.488 0 -0.887 -0.398 -0.887 -0.887 l 0 -1.227 c 0 -0.492 0.398 -0.887 0.887 -0.887 m 0 0" fill="#000"/></g></g></g></g><g><g clip-path="url(#clipPath-733858183)"><g transform="translate(0,-1)"><!-- color: #5ea1cc --><g><path d="m 20 9 l 0 2 l 8 0 l 0 -2 m -8 4 l 0 2 l 8 0 l 0 -2 m -8 4 l 0 4 l 8 0 l 0 -4 m -8 6 l 0 2 l -6 0 l 10 8 l 10 -8 l -6 0 l 0 -2 m -8 0" fill="#f9f9f9"/><path d="m 12.887 34 l 22.23 0 c 0.488 0 0.887 0.395 0.887 0.887 l 0 1.227 c 0 0.488 -0.398 0.887 -0.887 0.887 l -22.23 0 c -0.488 0 -0.887 -0.398 -0.887 -0.887 l 0 -1.227 c 0 -0.492 0.398 -0.887 0.887 -0.887 m 0 0" fill="#f9f9f9"/></g></g></g></g><g><g transform="translate(0,-1004.3622)"><path d="m 1 1043.36 0 4 c 0 2.216 1.784 4 4 4 l 38 0 c 2.216 0 4 -1.784 4 -4 l 0 -4 c 0 2.216 -1.784 4 -4 4 l -38 0 c -2.216 0 -4 -1.784 -4 -4 z" opacity="0.1"/></g></g></svg>
